X: 4872
T: Braes Of Glendochart, The
R: reel
M: 4/4
K: Dmixolydian
~F3A BFAF|G2cG EFGE|FDAD BDAF|1 Add^c dBAG:|2 Add^c d3z||
fada fdag|ecgc eg~g2|fada fded|cAGE EDD2|
fada fdag|ecgc eg~g2|afge fde^c|d2AG FDD2||
FDAD BDAD|G2cG ECAG|FDAD BDAD|1 Ad^ce d2AG:|2 Ad^ce d3e||
fada fdag|egcd efge|fade fdd^c|d2AG FADe|
fada fdag|egcd efge|afge edd^c|d2AG FADE||
G|(3FED AF BGAF|EGcG ECCE|(3FED AF BGAF|1 Ddd^c dDD:|
g|fada fdad|egcg ecgc|fada fdad|(3B^cd AG FDDg|
fada fdad|egcg ecgc|afge fde^c|dABG FDD||

